libs/icons/src/svg/upload.svg

<svg width="16" height="16" viewBox="0 0 16 16" fill="none" xmlns="http://www.w3.org/2000/svg">
<path fill-rule="evenodd" clip-rule="evenodd" d="M0.727273 10.1818C1.12893 10.1818 1.45455 10.5074 1.45455 10.9091V14.5455H14.5455V10.9091C14.5455 10.5074 14.8711 10.1818 15.2727 10.1818C15.6744 10.1818 16 10.5074 16 10.9091V15.2727C16 15.6744 15.6744 16 15.2727 16H0.727273C0.325611 16 0 15.6744 0 15.2727V10.9091C0 10.5074 0.325611 10.1818 0.727273 10.1818Z" fill="#202327"/>
<path fill-rule="evenodd" clip-rule="evenodd" d="M7.99998 0C8.40164 0 8.72725 0.325611 8.72725 0.727273V11.6364C8.72725 12.038 8.40164 12.3636 7.99998 12.3636C7.59832 12.3636 7.27271 12.038 7.27271 11.6364V0.727273C7.27271 0.325611 7.59832 0 7.99998 0Z" fill="#202327"/>
<path fill-rule="evenodd" clip-rule="evenodd" d="M7.48571 0.213013C7.76973 -0.0710044 8.23021 -0.0710044 8.51423 0.213013L12.8779 4.57665C13.1619 4.86067 13.1619 5.32115 12.8779 5.60517C12.5938 5.88919 12.1334 5.88919 11.8493 5.60517L7.99997 1.75579L4.15059 5.60517C3.86657 5.88919 3.40609 5.88919 3.12207 5.60517C2.83805 5.32115 2.83805 4.86067 3.12207 4.57665L7.48571 0.213013Z" fill="#202327"/>
</svg>

<svg xmlns="http://www.w3.org/2000/svg" viewBox="0 0 16 16" class="sageicon"><path fill-rule="evenodd" d="M.727 10.182c.402 0 .728.325.728.727v3.636h13.09V10.91a.727.727 0 1 1 1.455 0v4.364a.727.727 0 0 1-.727.727H.727A.727.727 0 0 1 0 15.273v-4.364c0-.402.326-.727.727-.727Z"/><path fill-rule="evenodd" d="M8 0c.402 0 .727.326.727.727v10.91a.727.727 0 0 1-1.454 0V.726C7.273.326 7.598 0 8 0Z"/><path fill-rule="evenodd" d="M7.486.213a.727.727 0 0 1 1.028 0l4.364 4.364a.727.727 0 0 1-1.029 1.028L8 1.755l-3.85 3.85a.727.727 0 1 1-1.028-1.028L7.486.213Z"/></svg>
